X:1
T:Title
%%score ( 1 2 ) 3
L:1/8
Q:1/4=110
M:4/4
K:Eb
V:1 treble nm="Grand Piano, Soprano"
V:2 treble 
V:3 bass nm="Choir Pad, Onward to Battle"
V:1
 e4 B3 G | c4 z4 | [Ac]2 [GB]2 [FA]2 [B,D]2 | [B,E]2 [EG]2 [EGB]2 (3Bcd | e4 B3 G | d2 c2 z4 | %6
w: By~Charles~J.~Espenshade * *||||||
 [Fd]2 [FB]2 [Ec]2 [Ec]2 | [DFB]6 z2 | [B,E]2 [B,E]2 [B,E]2 [DF]2 | [EG]>_G [E=G]>A [GB]2 [EG]2 | %10
w: ||||
 .F2 G4 z2 | .E2 z2 z4 | [B,E]2 [B,E]2 [B,E]2 [DF]2 | [EG]>_G [E=G]>A [GB]2 [EG]2 | %14
w: ||||
 [EF]2 [EG]2 [EF=A]2 [EFd]2 | [DFB]6 z2 | [B,E]2 [B,E]2 [B,E]2 [DF]2 | %17
w: |||
 [EG]>_G [E=G]>A [GB]2 [EG]2 | FB G2- [B,G]2 [B,F]2 | EG C4 [B,D]2 | [B,E]2 [B,E]2 [B,E]2 [DF]2 | %21
w: ||||
 [EG]>_G [E=G]B [EAe]4 | FG[FA][Ec] [DG]2 [B,DF]2 | E8 |] %24
w: |||
V:2
 x8 | DE=EF [GB]2 z [EG] | x8 | x8 | x8 | D=E_G=A [=GB]2 [Ec]2 | x8 | x8 | x8 | x8 | %10
 B,-[B,B] B,2 B,2 [B,F]2 | B,-[B,G] C4 [B,D]2 | x8 | x8 | x8 | x8 | x8 | x8 | B,2 B,2 z4 | %19
 B,2 z2 z4 | x8 | x8 | C2 z2 z4 | z2 [G,B,]2 [G,B,]4 |] %24
V:3
 E4 B,3 G, | [B,,A,]4 [E,G,]2 z [E,B,] | D,2 [A,B,D]2 B,,2 A,2 | G,2 B,2 [E,B,]2 z2 | E4 B,3 G, | %5
 [D,_G,]2 [D,D]2 [=G,D]2 [_G,B,]2 | [F,B,]2 [F,D]2 [_G,C]2 [F,=A,]2 | [B,,B,]2 A,2 G,2 F,2 | %8
 [E,G,]2 [B,,G,]2 [E,G,]2 [B,,B,]2 | [E,B,]2 [B,,B,]2 [E,B,]2 [B,,B,]2 | %10
 [D,A,]2 [B,,A,]2 [D,A,]2 [B,,A,]2 | [E,G,]2 [B,,G,]2 [D,A,]2 [B,,A,]2 | %12
 [E,G,]2 [B,,G,]2 [E,G,]2 [B,,B,]2 | [E,B,]2 [B,,B,]2 [E,B,]2 [E,B,]2 | %14
 [F,=A,]2 [F,B,]2 [F,C]2 [F,A,]2 | [B,,B,]2 A,2 G,2 F,2 | [E,G,]2 [B,,G,]2 [E,G,]2 [B,,B,]2 | %17
 [E,B,]2 [B,,B,]2 [E,B,]2 [B,,B,]2 | [D,A,]2 [B,,A,]2 [D,A,]2 [B,,A,]2 | %19
 [E,G,]2 [B,,G,]2 [D,A,]2 [B,,A,]2 | [E,G,]2 [B,,G,]2 [E,G,]2 [B,,B,]2 | [E,B,]2 [_D,B,]2 [C,A,]4 | %22
 A,2 F,2 [B,,B,]2 [B,,A,]2 | [E,G,]2 B,,2 E,,4 |] %24

